static/logos/cloudflare-pages.svg

<svg width="174" height="68" viewBox="0 0 174 68" fill="none" xmlns="http://www.w3.org/2000/svg">
<path d="M75.9397 54V30H85.4097C90.8497 30 94.0097 33.36 94.0097 38.13C94.0097 42.93 90.7997 46.22 85.2797 46.22H80.9997V54H75.9297H75.9397ZM80.9997 42.15H84.4497C87.3497 42.15 88.7697 40.51 88.7697 38.13C88.7697 35.74 87.3497 34.15 84.4197 34.15H80.9997V42.15V42.15ZM100.48 54.34C97.0497 54.34 94.4997 52.54 94.4997 48.97C94.4997 44.95 97.6997 43.76 101.27 43.43C104.39 43.13 105.62 42.97 105.62 41.81V41.74C105.62 40.27 104.65 39.41 102.95 39.41C101.16 39.41 100.09 40.29 99.7497 41.48L95.1397 41.11C95.8297 37.83 98.6597 35.77 102.98 35.77C106.98 35.77 110.62 37.57 110.62 41.86V54H105.88V51.5H105.74C104.86 53.18 103.14 54.34 100.48 54.34V54.34ZM101.91 50.89C104.11 50.89 105.66 49.45 105.66 47.57V45.66C105.06 46.06 103.28 46.31 102.19 46.46C100.43 46.71 99.2697 47.4 99.2697 48.81C99.2697 50.18 100.37 50.89 101.91 50.89ZM121.23 61.12C116.37 61.12 113.6 58.95 113 56.11L117.62 55.49C118.02 56.58 119.14 57.54 121.34 57.54C123.51 57.54 125.09 56.58 125.09 54.11V50.81H124.89C124.23 52.31 122.62 53.74 119.75 53.74C115.69 53.74 112.45 50.95 112.45 44.96C112.45 38.84 115.79 35.76 119.74 35.76C122.74 35.76 124.21 37.56 124.88 39.02H125.07V36H130.03V54.18C130.03 58.78 126.37 61.12 121.23 61.12V61.12ZM121.33 49.99C123.73 49.99 125.12 48.12 125.12 44.94C125.12 41.79 123.76 39.74 121.33 39.74C118.86 39.74 117.55 41.88 117.55 44.94C117.55 48.04 118.88 49.99 121.33 49.99ZM140.83 54.35C135.29 54.35 131.9 50.79 131.9 45.08C131.9 39.53 135.34 35.77 140.63 35.77C145.39 35.77 149.09 38.79 149.09 44.91V46.28H136.84C136.84 48.98 138.42 50.63 140.92 50.63C142.58 50.63 143.87 49.91 144.37 48.53L148.99 48.84C148.29 52.18 145.29 54.35 140.83 54.35V54.35ZM136.83 43.18H144.4C144.419 42.691 144.338 42.2033 144.16 41.7473C143.982 41.2914 143.712 40.8772 143.366 40.5307C143.021 40.1842 142.607 39.9129 142.152 39.7338C141.696 39.5547 141.209 39.4717 140.72 39.49C139.715 39.4685 138.743 39.8457 138.016 40.5391C137.289 41.2325 136.866 42.1856 136.84 43.19L136.83 43.18ZM165.95 41.13L161.38 41.41C161.13 40.25 160.1 39.31 158.37 39.31C156.82 39.31 155.6 40.01 155.61 41.09C155.61 41.95 156.22 42.53 157.9 42.89L161.16 43.55C164.65 44.26 166.35 45.82 166.36 48.42C166.35 51.97 163.01 54.35 158.34 54.35C153.57 54.35 150.64 52.23 150.18 48.79L155.08 48.53C155.39 49.99 156.58 50.75 158.36 50.75C160.1 50.75 161.26 49.99 161.28 48.93C161.26 48.03 160.55 47.45 158.98 47.13L155.86 46.51C152.34 45.81 150.64 44.06 150.66 41.37C150.64 37.9 153.68 35.77 158.28 35.77C162.83 35.77 165.5 37.82 165.95 41.13V41.13Z" fill="#37322e"/>
<path d="M84.1396 17.86H82.1197C81.9697 16.82 81.1796 16.18 80.0896 16.18C78.6196 16.18 77.6597 17.31 77.6597 19.28C77.6597 21.29 78.6396 22.36 80.0696 22.36C81.1396 22.36 81.9297 21.78 82.1197 20.76L84.1396 20.78C83.9296 22.52 82.4597 24.13 80.0396 24.13C77.5096 24.13 75.6396 22.36 75.6396 19.27C75.6396 16.18 77.5396 14.42 80.0396 14.42C82.2297 14.42 83.8796 15.67 84.1396 17.86V17.86ZM86.9697 14.55V24H84.9996V14.55H86.9697V14.55ZM91.1996 24.14C89.0396 24.14 87.6996 22.67 87.6996 20.48C87.6996 18.28 89.0396 16.82 91.1996 16.82C93.3496 16.82 94.6897 18.28 94.6897 20.48C94.6897 22.67 93.3497 24.14 91.1897 24.14H91.1996ZM91.1996 22.62C92.1796 22.62 92.6897 21.71 92.6897 20.47C92.6897 19.23 92.1796 18.32 91.1996 18.32C90.2096 18.32 89.6996 19.23 89.6996 20.47C89.6996 21.71 90.2096 22.62 91.1996 22.62ZM99.9697 20.98V16.91H101.94V24H100.05V22.71H99.9797C99.6597 23.54 98.8897 24.09 97.8297 24.09C96.3997 24.09 95.4296 23.09 95.4296 21.42V16.91H97.3896V21.07C97.3896 21.91 97.8797 22.43 98.6197 22.43C99.3197 22.43 99.9797 21.93 99.9697 20.98V20.98ZM105.57 24.12C103.97 24.12 102.7 22.84 102.7 20.46C102.7 18.03 104.02 16.82 105.57 16.82C106.76 16.82 107.33 17.52 107.59 18.1H107.65V14.55H109.61V24H107.67V22.86H107.59C107.421 23.2481 107.138 23.5761 106.78 23.801C106.421 24.0258 106.003 24.137 105.58 24.12H105.57ZM106.2 22.55C107.15 22.55 107.7 21.72 107.7 20.45C107.7 19.19 107.16 18.38 106.2 18.38C105.23 18.38 104.71 19.23 104.71 20.45C104.71 21.69 105.24 22.55 106.21 22.55H106.2ZM114.5 16.91V18.39H113.08V24H111.12V18.39H110.12V16.9H111.12V16.39C111.12 14.84 112.12 14.09 113.44 14.09C114.05 14.09 114.59 14.21 114.84 14.29L114.49 15.76C114.33 15.71 114.09 15.66 113.86 15.66C113.28 15.66 113.08 15.94 113.08 16.42V16.9H114.49L114.5 16.91ZM117.12 14.55V24H115.15V14.55H117.12ZM120.16 24.13C118.81 24.13 117.81 23.43 117.81 22.02C117.81 20.44 119.07 19.97 120.47 19.84C121.71 19.72 122.19 19.66 122.19 19.2V19.17C122.19 18.59 121.81 18.25 121.14 18.25C120.44 18.25 120.01 18.6 119.88 19.07L118.06 18.92C118.33 17.62 119.45 16.82 121.15 16.82C122.73 16.82 124.15 17.52 124.15 19.22V24H122.29V23.02H122.24C121.89 23.68 121.21 24.13 120.16 24.13V24.13ZM120.73 22.78C121.59 22.78 122.2 22.21 122.2 21.47V20.71C121.97 20.87 121.27 20.97 120.84 21.03C120.14 21.13 119.69 21.4 119.69 21.95C119.69 22.5 120.12 22.78 120.73 22.78ZM125.14 24V16.9H127.04V18.15H127.12C127.38 17.27 128.03 16.81 128.82 16.81C129.02 16.81 129.27 16.84 129.44 16.88V18.62C129.168 18.5516 128.889 18.518 128.61 18.52C127.75 18.52 127.11 19.12 127.11 19.99V24H125.14ZM132.81 24.14C130.63 24.14 129.29 22.74 129.29 20.49C129.29 18.29 130.65 16.82 132.73 16.82C134.61 16.82 136.07 18.01 136.07 20.42V20.96H131.24C131.24 22.02 131.86 22.67 132.84 22.67C133.5 22.67 134.01 22.39 134.2 21.85L136.02 21.97C135.75 23.28 134.56 24.14 132.82 24.14H132.81ZM131.24 19.74H134.21C134.21 18.89 133.61 18.28 132.76 18.28C132.365 18.2746 131.985 18.4248 131.7 18.698C131.416 18.9713 131.25 19.3456 131.24 19.74V19.74Z" fill="#37322e"/>
<path d="M45.94 10H60L62 12V56L60 58H40.84L41.81 56.5H59.38L60.5 55.38V12.62L59.38 11.5H47.26L45.83 18.89H44.3L45.67 11.43L45.95 10H45.94ZM12 58L10 56V12L12 10H31.9L30.89 11.5H12.62L11.5 12.62V55.38L12.62 56.5H27.1L26.86 58H12V58ZM15 53H23.5L23.2 54.5H14L13.5 54V45L15 48V53ZM49 53L50.5 54.5H43L44 53H49Z" fill="#37322e"/>
<path d="M32.67 40H19L17.34 36.88L40.34 2.88L43.96 4.38L39.42 28H53L54.68 31.09L32.68 65.09L29.02 63.69L32.67 40ZM15.5 17C15.1022 17 14.7206 16.842 14.4393 16.5607C14.158 16.2794 14 15.8978 14 15.5C14 15.1022 14.158 14.7206 14.4393 14.4393C14.7206 14.158 15.1022 14 15.5 14C15.8978 14 16.2794 14.158 16.5607 14.4393C16.842 14.7206 17 15.1022 17 15.5C17 15.8978 16.842 16.2794 16.5607 16.5607C16.2794 16.842 15.8978 17 15.5 17V17ZM19.5 17C19.1022 17 18.7206 16.842 18.4393 16.5607C18.158 16.2794 18 15.8978 18 15.5C18 15.1022 18.158 14.7206 18.4393 14.4393C18.7206 14.158 19.1022 14 19.5 14C19.8978 14 20.2794 14.158 20.5607 14.4393C20.842 14.7206 21 15.1022 21 15.5C21 15.8978 20.842 16.2794 20.5607 16.5607C20.2794 16.842 19.8978 17 19.5 17V17ZM23.5 17C23.1022 17 22.7206 16.842 22.4393 16.5607C22.158 16.2794 22 15.8978 22 15.5C22 15.1022 22.158 14.7206 22.4393 14.4393C22.7206 14.158 23.1022 14 23.5 14C23.8978 14 24.2794 14.158 24.5607 14.4393C24.842 14.7206 25 15.1022 25 15.5C25 15.8978 24.842 16.2794 24.5607 16.5607C24.2794 16.842 23.8978 17 23.5 17V17Z" fill="#37322e"/>
</svg>

<svg fill="none" xmlns="http://www.w3.org/2000/svg" viewBox="0 0 174 68"><path d="M76 54V30h9.4c5.4 0 8.6 3.4 8.6 8.1 0 4.8-3.2 8.1-8.7 8.1H81V54h-5zm5-11.9h3.4c3 0 4.4-1.6 4.4-4s-1.5-4-4.4-4H81v8zm19.5 12.2c-3.5 0-6-1.8-6-5.3 0-4 3.2-5.2 6.8-5.6 3-.3 4.3-.4 4.3-1.6 0-1.5-1-2.4-2.6-2.4-1.8 0-3 .9-3.3 2l-4.6-.3c.7-3.3 3.6-5.3 7.9-5.3 4 0 7.6 1.8 7.6 6V54H106v-2.5h-.2c-.8 1.7-2.6 2.8-5.2 2.8zm1.4-3.4c2.2 0 3.8-1.4 3.8-3.3v-2c-.6.5-2.4.7-3.5.9-1.8.2-3 .9-3 2.3s1.2 2 2.7 2zM121.2 61c-4.8 0-7.6-2.1-8.2-5l4.6-.6c.4 1 1.5 2 3.7 2s3.8-1 3.8-3.4v-3.3h-.2c-.7 1.5-2.3 3-5.2 3-4 0-7.3-2.8-7.3-8.8 0-6.2 3.4-9.2 7.3-9.2 3 0 4.5 1.8 5.2 3.2h.2v-3h5v18.2c0 4.6-3.7 7-8.9 7zm.1-11.1c2.4 0 3.8-1.9 3.8-5 0-3.2-1.3-5.3-3.8-5.3-2.4 0-3.8 2.2-3.8 5.2 0 3.1 1.4 5 3.8 5zm19.5 4.4c-5.5 0-8.9-3.6-8.9-9.3 0-5.6 3.4-9.3 8.7-9.3 4.8 0 8.5 3 8.5 9.1v1.4h-12.3c0 2.7 1.6 4.3 4.1 4.3 1.7 0 3-.7 3.5-2l4.6.2c-.7 3.4-3.7 5.6-8.2 5.6zm-4-11.2h7.6a3.6 3.6 0 00-3.7-3.7 3.8 3.8 0 00-3.9 3.7zm29.1-2l-4.5.2c-.3-1.1-1.3-2-3-2-1.6 0-2.8.6-2.8 1.7 0 .9.6 1.4 2.3 1.8l3.3.6c3.5.8 5.2 2.3 5.2 5 0 3.5-3.4 5.9-8 5.9-4.8 0-7.8-2.2-8.2-5.6l4.9-.3c.3 1.5 1.5 2.3 3.3 2.3 1.7 0 2.9-.8 2.9-1.9 0-.9-.8-1.4-2.3-1.8l-3.1-.6c-3.6-.7-5.3-2.4-5.2-5.1 0-3.5 3-5.6 7.6-5.6 4.5 0 7.2 2 7.6 5.3zM84.1 17.9h-2c-.1-1-1-1.7-2-1.7-1.5 0-2.4 1.1-2.4 3 0 2 1 3.2 2.4 3.2 1 0 1.8-.6 2-1.6h2c-.2 1.7-1.6 3.3-4 3.3-2.6 0-4.5-1.7-4.5-4.8 0-3.1 2-4.9 4.4-4.9 2.2 0 3.9 1.3 4.1 3.5zm2.9-3.3V24h-2v-9.4h2zm4.2 9.5c-2.2 0-3.5-1.4-3.5-3.6s1.3-3.7 3.5-3.7c2.1 0 3.5 1.5 3.5 3.7S93.3 24 91.2 24zm0-1.5c1 0 1.5-.9 1.5-2.1 0-1.3-.5-2.2-1.5-2.2s-1.5 1-1.5 2.2c0 1.2.5 2.1 1.5 2.1zM100 21v-4h2v7h-2v-1.3c-.3.8-1.1 1.4-2.2 1.4-1.4 0-2.4-1-2.4-2.7V17h2v4.2c0 .8.5 1.3 1.2 1.3S100 22 100 21zm5.6 3.1c-1.6 0-2.9-1.3-2.9-3.6 0-2.5 1.3-3.7 2.9-3.7a2 2 0 012 1.3v-3.6h2V24h-2v-1.1a2.1 2.1 0 01-2 1.2zm.6-1.6c1 0 1.5-.8 1.5-2 0-1.3-.5-2.1-1.5-2.1s-1.5.8-1.5 2c0 1.3.5 2.2 1.5 2.2zm8.3-5.6v1.5h-1.4V24h-2v-5.6h-1v-1.5h1v-.5c0-1.6 1-2.3 2.3-2.3a5 5 0 011.4.2l-.3 1.5-.6-.1c-.6 0-.8.2-.8.7v.5h1.4zm2.6-2.3V24h-2v-9.4h2zm3 9.5c-1.3 0-2.3-.7-2.3-2 0-1.7 1.3-2.1 2.7-2.3 1.2 0 1.7-.1 1.7-.6 0-.6-.4-1-1-1-.8 0-1.2.4-1.3.9l-1.8-.2c.2-1.3 1.4-2 3-2s3 .6 3 2.3V24h-1.8v-1c-.4.7-1 1.1-2.1 1.1zm.6-1.3c.9 0 1.5-.6 1.5-1.3v-.8c-.2.2-1 .3-1.4.3-.7.1-1.1.4-1.1 1 0 .5.4.8 1 .8zm4.4 1.2v-7.1h2v1.3c.3-1 1-1.4 1.7-1.4h.6v1.8h-.8c-.8 0-1.5.5-1.5 1.4v4h-2zm7.7.1c-2.2 0-3.5-1.4-3.5-3.6s1.3-3.7 3.4-3.7c2 0 3.4 1.2 3.4 3.6v.6h-4.9c0 1 .7 1.7 1.6 1.7.7 0 1.2-.3 1.4-.8h1.8c-.3 1.4-1.4 2.2-3.2 2.2zm-1.6-4.4h3c0-.8-.6-1.4-1.4-1.4a1.5 1.5 0 00-1.6 1.4zM46 10h14l2 2v44l-2 2H40.8l1-1.5h17.6l1.1-1.1V12.6l-1.1-1.1H47.3l-1.5 7.4h-1.5l1.4-7.5.3-1.4zM12 58l-2-2V12l2-2h19.9l-1 1.5H12.6l-1.1 1.1v42.8l1.1 1.1h14.5l-.2 1.5H12zm3-5h8.5l-.3 1.5H14l-.5-.5v-9l1.5 3v5zm34 0l1.5 1.5H43l1-1.5h5z" fill="#37322e"/><path d="M32.7 40H19l-1.7-3.1 23-34L44 4.4 39.4 28H53l1.7 3-22 34-3.7-1.3L32.7 40zM15.5 17a1.5 1.5 0 110-3 1.5 1.5 0 010 3zm4 0a1.5 1.5 0 110-3 1.5 1.5 0 010 3zm4 0a1.5 1.5 0 110-3 1.5 1.5 0 010 3z" fill="#37322e"/></svg>
